X:1
T:Polska efter gamla Spel-Stina
R:Polska
O:Torsker, Gstrikland
S:Spel-Stina
M:3/4
L:1/16
K:Am
a4|a^gb^g e4c4|B3^G EGBG EGBG|A^GAB cBcd e3c|B3A A^GBG E2 a2|
a^gb^g e4c4|B3^G EGBG EGBG|A^GAB cBcd e3c|BcB^G A4:|
|:c4|c2Bc d2dB G4|cBcd e2^G2A4|ABcd e2^f2 g2e2|^fe^df e4|
c4|c2Bc d2dB G4|cBcd e2^G2A4|ABcd e2^f2 g2e2|^fe^df e4|
a4|a^gb^g e4c4|B3^G EGBG EGBG|A^GAB cBcd e3c|BcB^G A4:|
